X:1
T:Christian Hearts in Love United
T:Text: Nicolaus L. von Zinzendorf, 1723; tr. composite Tune: Moravian chorale book manuscript, Herrnhut, 1735
T:87 87 D O DU LIEBE MEINER LIEBE www.hymnary.org/text/christian_hearts_in_love_united
T:Christian Hearts in Love United
T:This hymn is in the public domain. You may freely use this score for personal and congregational worship. If you reproduce the score, please credit Hymnary.org as the source. 
T:This hymn is in the public domain. You may freely use this score for personal and congregational worship. If you reproduce the score, please credit Hymnary.org as the source. 
Z:This hymn is in the public domain. You may freely use this score for personal and congregational worship. If you reproduce the score, please credit Hymnary.org as the source.
%%score ( 1 2 ) ( 3 4 )
L:1/8
M:4/4
K:G
V:1 treble nm="SOPRANO ALTO" snm="S. A."
V:2 treble 
V:3 bass nm="TENOR BASS" snm="T. B."
V:4 bass 
V:1
"^1""^2""^3" G2 A2 B2 d2 | c2 B2 A2 A2 | B2 A2 G2 A2 | G2 F2 G4 | G2 A2 B2 d2 | c2 B2 A2 A2 | %6
w: Chris- tian hearts in|love u- nit- ed:|search to know God's|ho- ly will.|Let his love, in|us ig- nit- ed,|
w: Grant, Lord, that with|your di- rec- tion|"Love each oth- er"|we com- ply.|Help us live in|true af- fec- tion,|
w: Come, then, liv- ing|church of Je- sus,|cov- e- nant with|him a- new.|Un- to him who|con- quered for us|
 B2 A2 G2 A2 | G2 F2 G4 | F2 G2 A2 A2 | G2 F2 E2 E2 | F2 G2 A2 B2 | c2 B2 A4 |1 G2 A2 B2 d2 | %13
w: more and more our|spir- its fill.|Christ the head, and|we his mem- bers—|we re- flect the|light he is.|Christ the mas- ter,|
w: your love to ex-|em- pli- fy.|Let our mu- tual|love be glow- ing|bright- ly so that|all may view|that we, as on|
w: may we pledge our|ser- vice true.|May our lives re-|flect the bright- ness|of God's love in|Je- sus shown.|To the world we|
 c2 B2 A2 A2 | B2 A2 G2 A2 | G2 F2 G4 |] %16
w: we dis- ci- ples—|he is ours and|we are his.|
w: one stem grow- ing,|liv- ing branch- es|are in you.|
w: then bear wit- ness:|we be- long to|God a- lone.|
V:2
 D2 F2 G2 G2 | EF G2 G2 F2 | G2 F2 E2 E2 | D2 D2 D4 | D2 F2 G2 G2 | EF G2 G2 F2 | G2 F2 E2 E2 | %7
 D2 D2 D4 | D2 D2 ^C2 D2 | B,^C D2 D2 C2 | D2 B,2 D2 D2 | E2 DE F4 |1 D2 F2 G2 G2 | EF G2 G2 F2 | %14
 G2 F2 E2 E2 | D2 D2 D4 |] %16
V:3
 B,2 D2 D2 B,2 | C2 D2 D2 D2 | D2 DC B,2 C2 | B,2 A,2 B,4 | B,2 D2 D2 B,2 | C2 D2 D2 D2 | %6
 D2 DC B,2 C2 | B,2 A,2 B,4 | A,2 G,2 E,2 F,2 | G,2 A,2 A,2 A,2 | A,2 G,2 F,2 G,2 | G,A, B,^C D4 |1 %12
 B,2 D2 D2 B,2 | C2 D2 D2 D2 | D2 DC B,2 C2 | B,2 A,2 B,4 |] %16
V:4
 G,2 D,2 G,2 G,,2 | A,,2 B,,C, D,2 D,2 | G,2 D,2 E,2 C,2 | D,2 D,2 G,,4 | G,2 D,2 G,2 G,,2 | %5
 A,,2 B,,C, D,2 D,2 | G,2 D,2 E,2 C,2 | D,2 D,2 G,,4 | D,2 B,,2 A,,2 D,2 | E,2 D,2 A,,2 A,,2 | %10
 D,2 E,2 D,2 G,2 | E,F, G,2 D,4 |1 G,2 D,2 G,2 G,,2 | A,,2 B,,C, D,2 D,2 | G,2 D,2 E,2 C,2 | %15
 D,2 D,2 G,,4 |] %16

